X: 16777
T: Harley Ashtray, The
R: reel
M: 4/4
K: Gdorian
|:DGGB ABGB|Affe fcAc|dggf ggga|gdbd fdcd|
DGGB ABBB|Affe fcAc|BBBA BBBc|1 dggf d2 dc:|2 dggf d2 df||
|:g2 gf gddd|gaba gbfg|fBBA BBBc|d/c/B fB df f2|
g2 gf gddd|gaba gbfg|fBBA B2 Bc|1 dggf d2 cd:|2 dggf d2 dc||

